client/public/assets/icons/custom/custom101.svg

<?xml version="1.0" encoding="UTF-8" standalone="no"?>
<svg width="100px" height="100px" viewBox="0 0 100 100" version="1.1" xmlns="http://www.w3.org/2000/svg" xmlns:xlink="http://www.w3.org/1999/xlink">
    <g stroke="none" stroke-width="1" fill="none" fill-rule="evenodd">
        <path d="M44.8852532,38.6545418 C49.0061772,38.6728572 52.3337271,42.0251364 52.3215304,46.1460831 C52.3093336,50.2670298 48.9619988,53.5995534 44.8410386,53.5934754 C40.7200783,53.5873974 37.3825883,50.2450143 37.3825476,46.1240496 C37.382528,44.1372476 38.1740472,42.2323007 39.5820399,40.8305381 C40.9900326,39.4287754 42.8984708,38.6457116 44.8852532,38.6545418 L44.8852532,38.6545418 Z M45.3898599,70.1459864 C45.9276645,69.9069622 46.5584229,69.5484258 47.3286121,69.1301334 C49.2027645,68.0104917 51.1737981,67.0616401 53.217904,66.2950402 C52.6056848,65.069754 52.0582728,63.8131443 51.5779321,62.5304083 C51.5779321,62.444094 51.518176,62.3245819 51.4849782,62.231628 C49.3935306,63.1030816 47.1509886,63.5542973 44.8852532,63.5595405 C35.4254409,63.5704973 27.6853418,56.0306934 27.4483313,46.5738444 C27.2113207,37.1169953 34.5640097,29.1989312 44.0124945,28.7360022 C53.4609793,28.2730731 61.5524863,35.4344481 62.2410693,44.8691723 C66.1584112,45.2874647 68.3627459,47.2262169 69.544588,49.3840747 C69.6997146,48.3042519 69.7795819,47.2149507 69.7836122,46.1240496 C69.8098695,32.5155585 58.9026197,21.4084266 45.2958954,21.1875802 C31.6891712,20.9667338 20.4272089,31.7140442 20.0118185,45.3162194 C19.596428,58.9183946 30.1816016,70.3328844 43.7764462,70.9427339 C44.281053,70.6705118 44.7922993,70.4049293 45.3898599,70.1327073 L45.3898599,70.1459864 Z M75.2678908,72.383519 C72.9374044,71.3344681 69.4981111,68.6786431 64.3922876,67.7823022 C65.7202,66.3813545 66.6895762,64.1969385 67.7120688,61.6008696 C68.3096294,60.106968 68.1901173,58.8188929 68.1901173,56.9996528 C68.1901173,55.6717403 68.4291415,53.5006034 68.103803,52.3121217 C66.9684378,48.3283843 64.1200655,47.1996587 60.8002843,47.1996587 C57.4805031,47.1996587 54.6188517,48.3084656 53.4967656,52.33868 C53.1714271,53.5338012 53.4104513,55.6584612 53.4104513,57.0262111 C53.4104513,58.8520907 53.3174974,60.1335263 53.8884998,61.6274278 C54.9043529,64.2301363 55.8803685,66.4079128 57.208281,67.8155 C52.0825388,68.7450387 48.6698037,71.4008637 46.3459569,72.4167168 C41.565472,74.5347372 41.5389137,76.8718631 41.5389137,76.8718631 L41.5389137,80.8157632 L79.9886197,80.8157632 L79.9886197,76.8718631 C80.0483758,76.8718631 80.0483758,74.5148185 75.234693,72.3901585 L75.2678908,72.383519 Z" id="Shape" fill="#FFFFFF"></path>
    </g>
</svg>

<?xml version="1.0"?><svg width="100" height="100" viewBox="0 0 100 100" xmlns="http://www.w3.org/2000/svg"><path d="m44.9 38.7c4.1 0 7.4 3.3 7.4 7.4 0 4.2-3.3 7.5-7.5 7.5-4.1 0-7.4-3.4-7.4-7.5 0-2 0.8-3.9 2.2-5.3 1.4-1.4 3.3-2.2 5.3-2.1z m0.5 31.4c0.5-0.2 1.2-0.6 1.9-1 1.9-1.1 3.9-2 5.9-2.8-0.6-1.2-1.1-2.5-1.6-3.8 0-0.1-0.1-0.2-0.1-0.3-2.1 0.9-4.3 1.4-6.6 1.4-9.5 0-17.2-7.6-17.5-17-0.2-9.5 7.2-17.4 16.6-17.9 9.5-0.4 17.6 6.7 18.2 16.2 4 0.4 6.2 2.3 7.3 4.5 0.2-1.1 0.3-2.2 0.3-3.3 0-13.6-10.9-24.7-24.5-24.9-13.6-0.2-24.9 10.5-25.3 24.1-0.4 13.6 10.2 25 23.8 25.6 0.5-0.2 1-0.5 1.6-0.8v0z m29.9 2.3c-2.4-1.1-5.8-3.7-10.9-4.6 1.3-1.4 2.3-3.6 3.3-6.2 0.6-1.5 0.5-2.8 0.5-4.6 0-1.3 0.2-3.5-0.1-4.7-1.1-4-4-5.1-7.3-5.1-3.3 0-6.2 1.1-7.3 5.1-0.3 1.2-0.1 3.4-0.1 4.7 0 1.9-0.1 3.1 0.5 4.6 1 2.6 2 4.8 3.3 6.2-5.1 0.9-8.5 3.6-10.9 4.6-4.7 2.1-4.8 4.5-4.8 4.5v3.9h38.5v-3.9c0 0 0-2.4-4.8-4.5l0.1 0z" fill="#fff"></path></svg>
